X:1
T:Invention No 1 in C Major
T:Invention No 1 in C Major
T:BWV 772
T:Johann Sebastian Bach
C:Johann Sebastian Bach
%%score { 1 | 2 }
L:1/8
Q:1/4=70
M:4/4
K:C
V:1 treble nm="Piano" snm="Pno."
V:2 bass 
V:1
 z/ C/D/E/ F/D/E/C/ GcPBc | d/G/A/B/ c/A/B/G/ dgPfg | e/a/g/f/ e/g/f/a/ g/f/e/d/ c/e/d/f/ | %3
 e/d/c/B/ A/c/B/d/ c/B/A/G/ ^F/A/G/B/ | AD Mc>d B/A/G/^F/ E/G/F/A/ | %5
 G/B/A/c/ B/d/c/e/ d/B/4c/4d/g/ PBA/G/ | G z z2 z/ G/A/B/ c/A/B/G/ | P^F z z2 z/ A/B/c/ d/B/c/A/ | %8
 B z z2 z/ d/c/B/ A/c/B/d/ | c z z2 z/ e/d/c/ B/d/^c/e/ | d^cde fABc | d^F^GA Bc d2- | %12
 d/E/^F/^G/ A/F/G/E/ e/d/c/e/ d/c/B/d/ | c/a/^g/b/ g/e/f/d/ ^G/f/e/d/ cB/A/ | %14
 A/a/g/f/ e/g/f/a/ g4- | g/e/f/g/ a/f/g/e/ f4- | f/g/f/e/ d/f/e/g/ f4- | f/d/e/f/ g/e/f/d/ e4- | %18
 e/c/d/e/ f/d/e/c/ d/e/f/g/ a/f/g/e/ | f/g/a/b/ c'/a/b/g/ c'g ed/c/ | %20
 c/_B/A/G/ F/A/G/B/ A/=B/c/E/ D/c/F/B/ | !arpeggio!!fermata![EGc]8 |] %22
V:2
 z4 z/ C,/D,/E,/ F,/D,/E,/C,/ | G,G,, z2 z/ G,/A,/B,/ C/A,/B,/G,/ | CB,CD EG,A,B, | %3
 CE,^F,G, A,B, C2- | C/D,/E,/^F,/ G,/E,/F,/D,/ G,B,,C,D, | E,^F,G,E, B,,>C, D,D,, | %6
 z/ G,,/A,,/B,,/ C,/A,,/B,,/G,,/ D,G,^F,G, | A,/D,/E,/^F,/ G,/E,/F,/D,/ A,DC.D | %8
[K:treble] G,/G/F/E/ D/F/E/G/ FEFD | E/A/G/F/ E/G/F/A/ GFGD | %10
 F/_B/A/G/ F/A/G/B/ A/G/F/E/ D/F/E/G/ | F/E/D/C/ B,/D/C/E/ D/C/B,/A,/ ^G,/B,/A,/C/ | %12
[K:bass] B,E, MD>E C/B,/A,/G,/ ^F,/A,/^G,/B,/ | A,/C/B,/D/ C/E/D/F/ EA,EE, | %14
 A,A,, z2 z/ E/D/C/ B,/D/^C/E/ | D4- D/A,/B,/C/ D/B,/C/A,/ | B,4- B,/D/C/B,/ A,/C/B,/D/ | %17
 C4- C/G,/A,/_B,/ C/A,/B,/G,/ | A,_B,A,G, F,DCB, | A,FED E/D,/E,/F,/ G,/E,/F,/D,/ | %20
 E,C,D,E, F,/D,/E,/F,/ G,G,, | !arpeggio!!fermata![C,,C,]8 |] %22

